X:298
T:The spinners delight
R:Reel
O:Ireland
B:Krassen O'Neill's p128
B:O'Neill's 1380
S:O'Neill's 1380
Z:Transcription:Bob Safranek, slight arr., chords:Mike Long
M:C|
L:1/8
K:A
ed|\
"A"c2cB Acec|"E"dcBA GABd|"A"cAce "D"fdfa|"E"(3(gab) eg afed|\
"A"c2cB Acec|
"E"dcBA GABd|"A"(3(cBA) ce "E"dBGB|"A"Ac"E"BG "A"A2:|\
|:cd|\
"A"e2ag aecA|"E"B2Bc dcBc|
"A"Aced ceba|"E"ge^de "D"fe=dB|\
"A"e2ag aecA|"D"d2fg fgaf|"A"e2gf "E"edcB|"A"Ac"E"BG "A"A2:|
